X:1
T:The Fir Tree
C:Neil Gow
O:Scotland
B:Keith Norman MacDonald "The Skye collection of the best reels & strathspeys extant", 1887
Z:2009 Ralph Palmer 
R:Strathspey
M:C
L:1/8
K:D
"^Slowly"A |\
"D"{G}TF2 DB/c/ d>A =c>G | "C"{F}TE2 =C>E =c>G E>A |\
"D"{G}TF2 DB/c/ d>A B>A | "D"{G}TF2 DB/c/ "(A)"d/c/B/A/ "D"d ||
f |\
"D"{G}F2 DB/c/ d>A =c>G | "C"{F}TE2 =C>E c>G E>G |\
"D"D>E F>G A<d A>F | "A7"G<E TA>G "D"F<D D |]
f |\
"D"d/d/d f>d "(A)"g>e "D"f>d | "C"e/e/e Tf>d g>e =ce |\
"D"d/d/d f>d "(A)"g>e "D"f>d | "A7"e/e/e ~a>g "D"f>d d ||
f |\
"D"d/d/d f>d "(A)"g>e "D"f>d | "C"e/e/e Tf>d g>e {d}=ce |\
"D"d>e f>g a>b a>f | "A7"g>e a/g/f/e/ "D"f<d d |]
